icon/cg/math-plus.svg

<svg viewBox="0 0 24 24" fill="none" xmlns="http://www.w3.org/2000/svg" height="1em" width="1em">
  <path d="M12 4C11.4477 4 11 4.44772 11 5V11H5C4.44772 11 4 11.4477 4 12C4 12.5523 4.44772 13 5 13H11V19C11 19.5523 11.4477 20 12 20C12.5523 20 13 19.5523 13 19V13H19C19.5523 13 20 12.5523 20 12C20 11.4477 19.5523 11 19 11H13V5C13 4.44772 12.5523 4 12 4Z" fill="currentColor"/>
</svg>

<svg width="24" height="24" fill="none" xmlns="http://www.w3.org/2000/svg"><path d="M12 4a1 1 0 0 0-1 1v6H5a1 1 0 1 0 0 2h6v6a1 1 0 1 0 2 0v-6h6a1 1 0 1 0 0-2h-6V5a1 1 0 0 0-1-1Z" fill="currentColor"/></svg>
